public/like-icon.svg

<svg width="491" height="491" viewBox="0 0 491 491" fill="none" xmlns="http://www.w3.org/2000/svg">
<g clip-path="url(#clip0_2_2)">
<path d="M490.1 234.464C490.1 196.864 459.5 166.164 421.8 166.164H316.2V90.064C316.2 57.864 306.8 34.664 288.2 21.064C258.8 -0.536008 218.4 11.764 216.7 12.364C211.6 13.964 208.1 18.664 208.1 24.064V109.564C208.1 176.864 130 199.764 126.7 200.764C125.7 201.064 124.8 201.364 124 201.864C118.2 190.264 106.2 182.264 92.4 182.264H35.2C15.8 182.264 0 198.064 0 217.464V425.364C0 444.764 15.8 460.564 35.2 460.564H68.3C75.1 460.564 80.6 455.064 80.6 448.264C80.6 441.464 75 436.064 68.3 436.064H35.2C29.3 436.064 24.5 431.264 24.5 425.364V217.464C24.5 211.564 29.3 206.764 35.2 206.764H92.5C98.4 206.764 103.2 211.564 103.2 217.464V413.564C103.2 451.164 133.8 481.864 171.5 481.864H380.7C427.1 481.864 456.6 457.564 461.8 415.564L490 238.564C490.1 237.964 490.2 237.264 490.2 236.664V234.464H490.1V234.464ZM465.6 235.564L437.5 412.064C433.8 442.064 414.7 457.364 380.7 457.364H372.9H171.5C147.4 457.364 127.7 437.764 127.7 413.564V224.464C129.5 224.864 131.4 224.764 133.3 224.264C137.4 223.164 232.6 195.564 232.6 109.464V33.864C243 32.264 260.8 31.364 273.7 40.764C285.6 49.564 291.7 66.064 291.7 90.064V178.464C291.7 185.264 297.2 190.764 304 190.764H421.9C446 190.764 465.7 210.364 465.7 234.564V235.564H465.6V235.564Z" fill="white"/>
</g>
<defs>
<clipPath id="clip0_2_2">
<rect width="490.2" height="490.2" fill="white"/>
</clipPath>
</defs>
</svg>

<?xml version="1.0" encoding="iso-8859-1"?>
<!-- Generator: Adobe Illustrator 19.0.0, SVG Export Plug-In . SVG Version: 6.00 Build 0)  -->
<svg version="1.1" id="Capa_1" xmlns="http://www.w3.org/2000/svg" xmlns:xlink="http://www.w3.org/1999/xlink" x="0px" y="0px"
	 viewBox="0 0 490.2 490.2" style="enable-background:new 0 0 490.2 490.2;" xml:space="preserve">
<g>
	<path d="M490.1,234.464c0-37.6-30.6-68.3-68.3-68.3H316.2v-76.1c0-32.2-9.4-55.4-28-69c-29.4-21.6-69.8-9.3-71.5-8.7
		c-5.1,1.6-8.6,6.3-8.6,11.7v85.5c0,67.3-78.1,90.2-81.4,91.2c-1,0.3-1.9,0.6-2.7,1.1c-5.8-11.6-17.8-19.6-31.6-19.6H35.2
		c-19.4,0-35.2,15.8-35.2,35.2v207.9c0,19.4,15.8,35.2,35.2,35.2h33.1c6.8,0,12.3-5.5,12.3-12.3s-5.6-12.2-12.3-12.2H35.2
		c-5.9,0-10.7-4.8-10.7-10.7v-207.9c0-5.9,4.8-10.7,10.7-10.7h57.3c5.9,0,10.7,4.8,10.7,10.7v196.1c0,37.6,30.6,68.3,68.3,68.3
		h209.2c46.4,0,75.9-24.3,81.1-66.3l28.2-177c0.1-0.6,0.2-1.3,0.2-1.9v-2.2H490.1z M465.6,235.564l-28.1,176.5
		c-3.7,30-22.8,45.3-56.8,45.3h-7.8H171.5c-24.1,0-43.8-19.6-43.8-43.8v-189.1c1.8,0.4,3.7,0.3,5.6-0.2
		c4.1-1.1,99.3-28.7,99.3-114.8v-75.6c10.4-1.6,28.2-2.5,41.1,6.9c11.9,8.8,18,25.3,18,49.3v88.4c0,6.8,5.5,12.3,12.3,12.3h117.9
		c24.1,0,43.8,19.6,43.8,43.8v1H465.6z"/>
</g>
<g>
</g>
<g>
</g>
<g>
</g>
<g>
</g>
<g>
</g>
<g>
</g>
<g>
</g>
<g>
</g>
<g>
</g>
<g>
</g>
<g>
</g>
<g>
</g>
<g>
</g>
<g>
</g>
<g>
</g>
</svg>
